packages/icons/svg/Outline/collapse.svg

<svg width="24" height="24" viewBox="0 0 24 24" fill="none" xmlns="http://www.w3.org/2000/svg">
<g id="Icon/Outline/collapse">
<path id="Mask" fill-rule="evenodd" clip-rule="evenodd" d="M16.4155 8.99901L19.0005 9.00001C19.5525 9.00001 20.0005 9.44801 20.0005 10.001C19.9995 10.553 19.5515 11 19.0005 11H18.9995L14.0245 10.997C13.4745 10.997 13.0275 10.552 13.0245 10.002L13.0005 5.00501C12.9975 4.45301 13.4425 4.00301 13.9955 4.00001H14.0005C14.5505 4.00001 14.9975 4.44401 15.0005 4.99501L15.0125 7.57301L18.2925 4.29301C18.6835 3.90201 19.3165 3.90201 19.7075 4.29301C20.0975 4.68401 20.0975 5.31601 19.7075 5.70701L16.4155 8.99901ZM5.00449 13.0004L10.0015 13.0254C10.5515 13.0284 10.9965 13.4744 10.9965 14.0244L11.0005 18.9994C11.0005 19.5514 10.5525 20.0004 10.0005 20.0004C9.44749 20.0004 9.00049 19.5524 9.00049 19.0014L8.99849 16.4164L5.70749 19.7074C5.51149 19.9024 5.25549 20.0004 5.00049 20.0004C4.74449 20.0004 4.48849 19.9024 4.29349 19.7074C3.90249 19.3164 3.90249 18.6834 4.29349 18.2934L7.57249 15.0134L4.99549 15.0004C4.44249 14.9974 3.99749 14.5464 4.00049 13.9954C4.00249 13.4444 4.45049 13.0004 5.00049 13.0004H5.00449Z" fill="#000000"/>
</g>
</svg>

<svg fill="none" height="24" viewBox="0 0 24 24" width="24" xmlns="http://www.w3.org/2000/svg"><path clip-rule="evenodd" d="m16.4155 8.99901 2.585.001c.552 0 1 .448 1 1.00099-.001.552-.449.999-1 .999h-.001l-4.975-.003c-.55 0-.997-.445-1-.995l-.024-4.99699c-.003-.552.442-1.002.995-1.005h.005c.55 0 .997.444 1 .995l.012 2.578 3.28-3.28c.391-.391 1.024-.391 1.415 0 .39.391.39 1.023 0 1.414zm-11.41101 4.00119 4.99701.025c.55.003.995.449.995.999l.004 4.975c0 .552-.448 1.001-1 1.001-.55301 0-1.00001-.448-1.00001-.999l-.002-2.585-3.291 3.291c-.196.195-.452.293-.707.293-.256 0-.512-.098-.707-.293-.391-.391-.391-1.024 0-1.414l3.279-3.28-2.577-.013c-.553-.003-.998-.454-.995-1.005.002-.551.45-.995 1-.995z" fill="#6b7280" fill-rule="evenodd"/></svg>
